X: 3409
T: Berwick Billy
R: three-two
M: 3/2
K: Fmajor
c2 F2 F2 c2 dcBA|c2 F2 F2 c2 d2 f2|c2 F2 F2 c2 dcBA|B2 G2 G2 A2 B2 d2:|
fgfe f2 F2 ABcA|fgfe f2 c2 f2 a2|f2 c2 c2 A2 ABcA|g3 a g2 G2 B2 d2|f3g agfa f2 c2|f2 c2 c2 A2 d2 f2|f2 ga bagf agfe d2 g2 g2 G2 B2 d2||
c4 dcBA dcBA|c4 dcBA c2 f2|c4 dcBA dcBA|B2 G2 G2 A2 B2 d2:|

